X:1
T:Title
%%score { ( 1 3 ) | ( 2 4 ) }
L:1/8
M:4/4
K:G
V:1 treble nm="Grand Piano"
V:3 treble 
V:2 bass 
V:4 bass 
V:1
 z4 z2[Q:1/4=108] D2 | [DB]4 [^DB]4 | BA^GA [Ec]2 [CF]2 | [B,A]2 [B,G]2 [_B,F]2 [B,E]2 | %4
 [B,E]2 [B,D]2 [B,D]4 | D2 E2 F2 E2 | [B,D]2 [DG]2 [DA]2 [DB]2 | [^CA]4 [CE]4 | A6 D2 | %9
 [DB]4 [^DB]4 | BA^GA [Ec]2 [CF]2 | [B,A]2 [B,G]2 [_B,F]2 [B,E]2 | [B,E]2 [B,D]2 [B,D]4 | %13
 [CE]2 [^DF]2 [EG]2 [Ge]2 | [Gd]2 [GB]2 G2 D2 | G4 A4 |[M:3/4] z2 DD D2 |[M:1/4] D2 | %18
[M:4/4] [B,B]4 [Dd]4 | G6 z2 | E2 [DF]2 [DG]2 [Ec]2 | B4 A4 | d4 e4 | [DGd]2 [DB]2 [DA]2 [DG]2 | %24
 [^CA]4 [CE]4 | A6 z2 | [B,B]4 [Dd]4 | G6 z2 | E2 [DF]2 [DG]2 [Ec]2 | B4 A4 | d4 e4 | %31
 [DGd]2 [DB]2 [DG]2 D2 | [^CG]4 [=CA]4 |[M:3/4] [B,G]6 |] %34
V:2
 z4 z2 D,2 | [G,,G,]4 [G,,G,]4 | G,2 z2 z4 | [G,,G,]2 [G,,D,]2 [G,,^C,]2 [G,,C,]2 | %4
 [G,,D,]2 [G,,G,]2 [G,,G,]4 | [D,F,C]2 [D,G,C]2 [D,A,C]2 [D,F,C]2 | %6
 [G,,G,]2 [B,,G,]2 [A,,F,]2 [G,,G,]2 | [A,,E,]4 [A,,G,]4 | [D,F,C]6 [D,F,]2 | [G,,G,]4 [G,,G,]4 | %10
 G,2 z2 z4 | [G,,G,]2 [G,,D,]2 [G,,^C,]2 [G,,C,]2 | [G,,D,]2 [G,,G,]2 [G,,G,]4 | %13
 [C,G,]2 [B,,B,]2 [E,B,]2 [B,,_B,]2 | [D,B,]2 [D,D]2 [D,B,D]2 [D,B,]2 | [E,A,^C]4 [D,F,=C]4 | %16
[M:3/4] z2 D,D, D,2 |[M:1/4] D,2 |[M:4/4] [G,,G,]4 z2 F2 | z2 B,2 B,2 [B,,G,]2 | %20
 [C,G,C]2 [C,A,]2 [B,,G,]2 [A,,G,]2 | z2 D2 z2 D2 | z2 D2 z2 E2 | %23
 [B,,B,]2 [G,,G,]2 [A,,F,]2 [B,,G,]2 | [A,,G,]4 [A,,G,]4 | [D,F,]2 [^D,,^D,]2 [E,,E,]2 [F,,F,]2 | %26
 [G,,G,]4 z2 F2 | z2 B,2 B,2 [B,,G,]2 | [C,G,C]2 [C,A,]2 [B,,G,]2 [A,,G,]2 | z2 D2 z2 D2 | %30
 z2 D2 z2 E2 | [B,,B,]2 [G,,G,]2 [B,,G,]2 [B,,G,]2 | [A,,A,]4 [D,F,]4 |[M:3/4] [G,,G,]6 |] %34
V:3
 x8 | x8 | E4 z4 | x8 | x8 | x8 | x8 | x8 | x8 | x8 | E4 z4 | x8 | x8 | x8 | x8 | x8 | %16
[M:3/4] [G,B,G]6 |[M:1/4] x2 |[M:4/4] z2 [DG]2 z2 A2 | z2 E2 E2 D2 | x8 | z2 G2 z2 F2 | %22
 z2 G2 z2 G2 | x8 | x8 | C2 [CF]2 [CE]2 [CD]2 | z2 [DG]2 z2 A2 | z2 E2 E2 D2 | x8 | z2 G2 z2 F2 | %30
 z2 G2 z2 G2 | x8 | x8 |[M:3/4] x6 |] %34
V:4
 x8 | x8 | C,2- [C,E,]2 [A,,A,]2 [D,A,]2 | x8 | x8 | x8 | x8 | x8 | x8 | x8 | %10
 C,2- [C,E,]2 [A,,A,]2 [D,A,]2 | x8 | x8 | x8 | x8 | x8 |[M:3/4] G,,6 |[M:1/4] x2 | %18
[M:4/4] z4 [F,,F,]4 | [E,,E,]6 z2 | x8 | D,4 [C,C]4 | [B,,B,]4 [C,C]4 | x8 | x8 | x8 | %26
 z4 [F,,F,]4 | [E,,E,]6 z2 | x8 | D,4 [C,C]4 | [B,,B,]4 [C,C]4 | x8 | x8 |[M:3/4] x6 |] %34

